;FLAVOR:Marlin
;TIME:1252
;Filament used: 0.570065m
;Layer height: 0.2
;MINX:93.45
;MINY:89.847
;MINZ:0.2
;MAXX:126.55
;MAXY:129.3
;MAXZ:5.4
;Generated with Cura_SteamEngine 4.12.1
M140 S60
M105
M190 S60
M104 S200
M105
M109 S200
M82 ;absolute extrusion mode
; Ender 3 Custom Start G-code
G92 E0 ; Reset Extruder
G28 ; Home all axes
G1 Z2.0 F3000 ; Move Z Axis up little to prevent scratching of Heat Bed
G1 X0.1 Y20 Z0.3 F5000.0 ; Move to start position
G1 X0.1 Y200.0 Z0.3 F1500.0 E15 ; Draw the first line
G1 X0.4 Y200.0 Z0.3 F5000.0 ; Move to side a little
G1 X0.4 Y20 Z0.3 F1500.0 E30 ; Draw the second line
G92 E0 ; Reset Extruder
G1 Z2.0 F3000 ; Move Z Axis up little to prevent scratching of Heat Bed
G1 X5 Y20 Z0.3 F5000.0 ; Move over to prevent blob squish
G92 E0
G92 E0
G1 F1500 E-6.5
;LAYER_COUNT:27
;LAYER:0
M107
;MESH:PersonalReminder_ModelFor3DPrinting v2.3mf
G0 F6000 X105.261 Y124.65 Z0.2
;TYPE:WALL-INNER
G1 F1500 E0
G1 F1200 X104.501 Y124.65 E0.02528
G1 X101.2 Y124.65 E0.13507
G1 X101.2 Y128.9 E0.27642
G1 X100.6 Y128.9 E0.29638
G1 X100.6 Y128.09 E0.32332
G1 X100.582 Y127.627 E0.33873
G1 X100.53 Y127.15 E0.35469
G1 X100.444 Y126.654 E0.37144
G1 X100.388 Y126.399 E0.38012
G1 X100.325 Y126.146 E0.38879
G1 X100.258 Y125.896 E0.3974
G1 X100.182 Y125.64 E0.40628
G1 X100.1 Y125.378 E0.41541
G1 X100.011 Y125.114 E0.42468
G1 X99.918 Y124.856 E0.4338
G1 X99.817 Y124.591 E0.44323
G1 X99.711 Y124.323 E0.45282
G1 X99.602 Y124.063 E0.46219
G1 X99.484 Y123.79 E0.47209
G1 X99.36 Y123.516 E0.48209
G1 X99.231 Y123.242 E0.49216
G1 X99.099 Y122.973 E0.50213
G1 X98.812 Y122.423 E0.52276
G1 X98.661 Y122.141 E0.5334
G1 X98.506 Y121.87 E0.54379
G1 X98.343 Y121.591 E0.55453
G1 X98.174 Y121.309 E0.56547
G1 X97.998 Y121.028 E0.57649
G1 X97.821 Y120.755 E0.58732
G1 X97.632 Y120.472 E0.59864
G1 X97.438 Y120.189 E0.61005
G1 X97.237 Y119.906 E0.62159
G1 X97.034 Y119.628 E0.63304
G1 X96.73 Y119.205 E0.65037
G1 X96.44 Y118.771 E0.66773
G1 X96.17 Y118.338 E0.6847
G1 X95.904 Y117.881 E0.70229
G1 X95.666 Y117.439 E0.71898
G1 X95.433 Y116.971 E0.73637
G1 X95.213 Y116.495 E0.75381
G1 X95.018 Y116.027 E0.77068
G1 X94.835 Y115.55 E0.78767
G1 X94.66 Y115.05 E0.80529
G1 X94.51 Y114.566 E0.82214
G1 X94.372 Y114.074 E0.83914
G1 X94.25 Y113.568 E0.85645
G1 X94.145 Y113.068 E0.87344
G1 X94.052 Y112.547 E0.89104
G1 X93.982 Y112.05 E0.90774
G1 X93.923 Y111.524 E0.92534
G1 X93.883 Y111.017 E0.94226
G1 X93.859 Y110.495 E0.95964
G1 X93.85 Y109.998 E0.97617
G1 X93.859 Y109.482 E0.99333
G1 X93.883 Y108.962 E1.01065
G1 X93.925 Y108.441 E1.02803
G1 X93.983 Y107.938 E1.04487
G1 X94.056 Y107.429 E1.06198
G1 X94.149 Y106.908 E1.07958
G1 X94.255 Y106.409 E1.09655
G1 X94.379 Y105.903 E1.11387
G1 X94.515 Y105.417 E1.13066
G1 X94.668 Y104.925 E1.1478
G1 X94.839 Y104.433 E1.16512
G1 X95.028 Y103.947 E1.18246
G1 X95.224 Y103.482 E1.19925
G1 X95.44 Y103.014 E1.21639
G1 X95.677 Y102.54 E1.23402
G1 X95.916 Y102.097 E1.25076
G1 X96.178 Y101.647 E1.26808
G1 X96.456 Y101.204 E1.28547
G1 X96.736 Y100.786 E1.30221
G1 X97.038 Y100.365 E1.31944
G1 X97.242 Y100.086 E1.33094
G1 X97.444 Y99.802 E1.34253
G1 X97.638 Y99.519 E1.35394
G1 X97.822 Y99.245 E1.36492
G1 X98.18 Y98.681 E1.38713
G1 X98.506 Y98.131 E1.4084
G1 X98.665 Y97.851 E1.41911
G1 X98.817 Y97.57 E1.42974
G1 X99.1 Y97.026 E1.45013
G1 X99.363 Y96.477 E1.47038
G1 X99.487 Y96.202 E1.48041
G1 X99.602 Y95.938 E1.48999
G1 X99.714 Y95.668 E1.49971
G1 X99.82 Y95.401 E1.50927
G1 X99.918 Y95.143 E1.51844
G1 X100.013 Y94.877 E1.52784
G1 X100.102 Y94.614 E1.53707
G1 X100.184 Y94.353 E1.54617
G1 X100.257 Y94.104 E1.5548
G1 X100.327 Y93.847 E1.56366
G1 X100.39 Y93.589 E1.5725
G1 X100.491 Y93.09 E1.58943
G1 X100.56 Y92.605 E1.60572
G1 X100.596 Y92.129 E1.6216
G1 X100.6 Y91.835 E1.63138
G1 X100.6 Y91.1 E1.65583
G1 X101.2 Y91.1 E1.67578
G1 X101.2 Y95.35 E1.81714
G1 X104.402 Y95.35 E1.92364
G1 X105.257 Y95.35 E1.95207
G1 X104.9 Y95.469 E1.96459
G1 X104.402 Y95.653 E1.97886
G1 X103.913 Y95.854 E1.99644
G1 X103.428 Y96.072 E2.01413
G1 X102.952 Y96.307 E2.03178
G1 X102.485 Y96.558 E2.04942
G1 X102.027 Y96.825 E2.06705
G1 X101.579 Y97.107 E2.08466
G1 X101.139 Y97.404 E2.10231
G1 X100.709 Y97.717 E2.12
G1 X100.292 Y98.045 E2.13765
G1 X99.887 Y98.386 E2.15526
G1 X99.493 Y98.741 E2.1729
G1 X99.111 Y99.11 E2.19056
G1 X98.742 Y99.492 E2.20823
G1 X98.387 Y99.886 E2.22587
G1 X98.047 Y100.292 E2.24348
G1 X97.719 Y100.708 E2.2611
G1 X97.406 Y101.138 E2.27879
G1 X97.109 Y101.576 E2.29639
G1 X96.826 Y102.025 E2.31404
G1 X96.559 Y102.484 E2.3317
G1 X96.308 Y102.951 E2.34934
G1 X96.074 Y103.427 E2.36698
G1 X95.856 Y103.91 E2.3846
G1 X95.655 Y104.4 E2.40222
G1 X95.504 Y104.802 E2.4165
G1 X95.303 Y105.402 E2.43755
G1 X95.154 Y105.91 E2.45516
G1 X95.021 Y106.423 E2.47278
G1 X94.908 Y106.942 E2.49045
G1 X94.812 Y107.463 E2.50807
G1 X94.747 Y107.887 E2.52234
G1 X94.683 Y108.411 E2.53989
G1 X94.637 Y108.942 E2.55762
G1 X94.61 Y109.47 E2.57521
G1 X94.601 Y110 E2.59284
G1 X94.609 Y110.53 E2.61047
G1 X94.636 Y111.06 E2.62812
G1 X94.682 Y111.589 E2.64578
G1 X94.746 Y112.115 E2.6634
G1 X94.828 Y112.639 E2.68104
G1 X94.927 Y113.16 E2.69868
G1 X95.046 Y113.679 E2.71639
G1 X95.182 Y114.191 E2.73401
G1 X95.334 Y114.698 E2.75162
G1 X95.504 Y115.2 E2.76924
G1 X95.692 Y115.697 E2.78692
G1 X95.897 Y116.186 E2.80455
G1 X96.118 Y116.668 E2.82219
G1 X96.356 Y117.143 E2.83986
G1 X96.61 Y117.608 E2.85748
G1 X96.88 Y118.065 E2.87514
G1 X97.166 Y118.511 E2.89276
G1 X97.466 Y118.947 E2.91036
G1 X97.782 Y119.374 E2.92803
G1 X98.112 Y119.789 E2.94566
G1 X98.456 Y120.193 E2.96331
G1 X98.814 Y120.585 E2.98097
G1 X99.185 Y120.965 E2.99863
G1 X99.57 Y121.33 E3.01628
G1 X99.966 Y121.682 E3.0339
G1 X100.374 Y122.021 E3.05154
G1 X100.794 Y122.346 E3.06921
G1 X101.224 Y122.655 E3.08682
G1 X101.665 Y122.949 E3.10445
G1 X102.117 Y123.23 E3.12215
G1 X102.577 Y123.492 E3.13976
G1 X103.046 Y123.741 E3.15742
G1 X103.524 Y123.971 E3.17506
G1 X104.008 Y124.186 E3.19267
G1 X104.501 Y124.385 E3.21036
G1 X104.999 Y124.565 E3.2161
G1 X105.261 Y124.65 E3.22526
G1 F1500 E-3.27474
G0 F6000 X106.569 Y124.828
G0 X106.569 Y125.915
G0 X113.254 Y125.915
G0 X113.254 Y124.848
G0 X114.741 Y124.65
G1 F1500 E3.22526
G1 F1200 X114.897 Y124.601 E3.2307
G1 X115.301 Y124.458 E3.24495
G1 X115.791 Y124.268 E3.26243
G1 X115.895 Y124.225 E3.26618
G1 X116.377 Y124.017 E3.28364
G1 X116.763 Y123.835 E3.29783
G1 X117.236 Y123.594 E3.31549
G1 X117.7 Y123.336 E3.33315
G1 X118.056 Y123.122 E3.34696
G1 X118.15 Y123.068 E3.35057
G1 X118.601 Y122.775 E3.36846
G1 X119.035 Y122.471 E3.38608
G1 X119.459 Y122.153 E3.40371
G1 X119.871 Y121.82 E3.42133
G1 X120.273 Y121.473 E3.43899
G1 X120.661 Y121.113 E3.45659
G1 X121.039 Y120.738 E3.4743
G1 X121.401 Y120.353 E3.49188
G1 X121.752 Y119.953 E3.50958
G1 X122.087 Y119.543 E3.52719
G1 X122.408 Y119.122 E3.5448
G1 X122.715 Y118.689 E3.56245
G1 X123.007 Y118.245 E3.58013
G1 X123.284 Y117.791 E3.59782
G1 X123.544 Y117.329 E3.61545
G1 X123.788 Y116.859 E3.63306
G1 X124.016 Y116.381 E3.65068
G1 X124.229 Y115.895 E3.66832
G1 X124.422 Y115.4 E3.686
G1 X124.599 Y114.901 E3.70361
G1 X124.76 Y114.396 E3.72123
G1 X124.903 Y113.883 E3.73895
G1 X125.026 Y113.368 E3.75656
G1 X125.134 Y112.85 E3.77416
G1 X125.224 Y112.326 E3.79184
G1 X125.295 Y111.799 E3.80953
G1 X125.347 Y111.272 E3.82714
G1 X125.382 Y110.744 E3.84474
G1 X125.399 Y110.214 E3.86238
G1 X125.397 Y109.682 E3.88007
G1 X125.376 Y109.153 E3.89768
G1 X125.337 Y108.625 E3.91529
G1 X125.283 Y108.097 E3.93294
G1 X125.207 Y107.57 E3.95065
G1 X125.114 Y107.049 E3.96825
G1 X125.004 Y106.53 E3.9859
G1 X124.875 Y106.014 E4.00359
G1 X124.729 Y105.505 E4.0212
G1 X124.565 Y105.001 E4.03883
G1 X124.385 Y104.504 E4.05641
G1 X124.229 Y104.109 E4.07054
G1 X123.972 Y103.525 E4.09176
G1 X123.74 Y103.048 E4.1094
G1 X123.493 Y102.579 E4.12703
G1 X123.23 Y102.119 E4.14465
G1 X122.949 Y101.667 E4.16236
G1 X122.655 Y101.226 E4.17998
G1 X122.346 Y100.795 E4.19762
G1 X122.021 Y100.376 E4.21526
G1 X121.684 Y99.967 E4.23289
G1 X121.33 Y99.571 E4.25055
G1 X120.965 Y99.188 E4.26815
G1 X120.585 Y98.816 E4.28584
G1 X120.194 Y98.458 E4.30347
G1 X119.79 Y98.115 E4.3211
G1 X119.376 Y97.784 E4.33873
G1 X118.948 Y97.468 E4.35642
G1 X118.514 Y97.169 E4.37395
G1 X118.155 Y96.936 E4.38818
G1 X117.699 Y96.664 E4.40584
G1 X117.238 Y96.406 E4.42341
G1 X116.764 Y96.164 E4.44112
G1 X116.283 Y95.939 E4.45878
G1 X115.795 Y95.732 E4.47641
G1 X115.301 Y95.54 E4.49404
G1 X114.799 Y95.367 E4.5117
G1 X114.744 Y95.35 E4.51361
G1 X115.301 Y95.35 E4.51892
G1 X115.795 Y95.35 E4.53061
G1 X118.8 Y95.35 E4.63056
G1 X118.8 Y91.1 E4.77192
G1 X119.4 Y91.1 E4.79187
G1 X119.4 Y91.91 E4.81881
G1 X119.418 Y92.373 E4.83422
G1 X119.47 Y92.85 E4.85018
G1 X119.556 Y93.346 E4.86693
G1 X119.612 Y93.601 E4.87561
G1 X119.675 Y93.854 E4.88428
G1 X119.742 Y94.104 E4.89289
G1 X119.818 Y94.36 E4.90177
G1 X119.9 Y94.622 E4.9109
G1 X119.989 Y94.886 E4.92017
G1 X120.082 Y95.144 E4.92929
G1 X120.183 Y95.409 E4.93872
G1 X120.289 Y95.677 E4.94831
G1 X120.398 Y95.937 E4.95769
G1 X120.516 Y96.21 E4.96758
G1 X120.64 Y96.484 E4.97758
G1 X120.769 Y96.758 E4.98765
G1 X120.901 Y97.027 E4.99762
G1 X121.188 Y97.577 E5.01825
G1 X121.339 Y97.859 E5.02889
G1 X121.494 Y98.13 E5.03928
G1 X121.657 Y98.409 E5.05002
G1 X121.826 Y98.691 E5.06096
G1 X122.002 Y98.972 E5.07199
G1 X122.179 Y99.245 E5.08281
G1 X122.368 Y99.528 E5.09413
G1 X122.562 Y99.811 E5.10554
G1 X122.763 Y100.093 E5.11706
G1 X123.27 Y100.795 E5.14586
G1 X123.56 Y101.229 E5.16322
G1 X123.827 Y101.658 E5.18003
G1 X124.094 Y102.114 E5.1976
G1 X124.331 Y102.555 E5.21425
G1 X124.562 Y103.019 E5.23149
G1 X124.781 Y103.491 E5.2488
G1 X124.978 Y103.963 E5.26581
G1 X125.168 Y104.456 E5.28338
G1 X125.334 Y104.929 E5.30005
G1 X125.487 Y105.424 E5.31729
G1 X125.628 Y105.926 E5.33463
G1 X125.75 Y106.432 E5.35194
G1 X125.854 Y106.926 E5.36873
G1 X125.947 Y107.446 E5.3863
G1 X126.019 Y107.955 E5.4034
G1 X126.076 Y108.462 E5.42037
G1 X126.116 Y108.971 E5.43735
G1 X126.141 Y109.499 E5.45493
G1 X126.15 Y110.002 E5.47166
G1 X126.141 Y110.518 E5.48883
G1 X126.117 Y111.038 E5.50614
G1 X126.075 Y111.559 E5.52353
G1 X126.017 Y112.062 E5.54037
G1 X125.944 Y112.571 E5.55747
G1 X125.851 Y113.092 E5.57507
G1 X125.745 Y113.591 E5.59204
G1 X125.621 Y114.097 E5.60937
G1 X125.485 Y114.583 E5.62615
G1 X125.332 Y115.075 E5.64329
G1 X125.161 Y115.567 E5.66061
G1 X124.972 Y116.053 E5.67796
G1 X124.776 Y116.518 E5.69474
G1 X124.56 Y116.986 E5.71189
G1 X124.329 Y117.449 E5.7291
G1 X124.084 Y117.903 E5.74625
G1 X123.822 Y118.353 E5.76357
G1 X123.544 Y118.796 E5.78097
G1 X123.264 Y119.214 E5.7977
G1 X122.962 Y119.635 E5.81493
G1 X122.758 Y119.914 E5.82643
G1 X122.556 Y120.198 E5.83802
G1 X122.362 Y120.481 E5.84943
G1 X122.178 Y120.755 E5.86041
G1 X121.82 Y121.319 E5.88263
G1 X121.494 Y121.869 E5.90389
G1 X121.335 Y122.149 E5.9146
G1 X121.183 Y122.43 E5.92523
G1 X120.9 Y122.974 E5.94563
G1 X120.637 Y123.523 E5.96587
G1 X120.513 Y123.798 E5.97591
G1 X120.398 Y124.062 E5.98548
G1 X120.286 Y124.332 E5.99521
G1 X120.18 Y124.599 E6.00476
G1 X120.082 Y124.857 E6.01394
G1 X119.987 Y125.123 E6.02333
G1 X119.898 Y125.386 E6.03257
G1 X119.816 Y125.647 E6.04167
G1 X119.743 Y125.896 E6.0503
G1 X119.673 Y126.153 E6.05916
G1 X119.61 Y126.411 E6.06799
G1 X119.509 Y126.91 E6.08492
G1 X119.44 Y127.395 E6.10122
G1 X119.404 Y127.871 E6.11709
G1 X119.4 Y128.165 E6.12687
G1 X119.4 Y128.9 E6.15132
G1 X118.8 Y128.9 E6.17128
G1 X118.8 Y124.65 E6.31263
G1 X115.791 Y124.65 E6.41271
G1 X115.301 Y124.65 E6.42435
G1 X114.741 Y124.65 E6.43398
G1 F1500 E-0.06602
G0 F6000 X113.254 Y124.848
G0 X111.243 Y123.831
G0 X110.206 Y123.798
G1 F1500 E6.43398
G0 F6000 X110.206 Y124.998
;TYPE:WALL-OUTER
G1 F1200 X110.721 Y124.982 E6.45112
G1 X111.134 Y124.957 E6.46488
G1 X111.751 Y124.897 E6.4855
G1 X112.163 Y124.843 E6.49932
G1 X112.672 Y124.76 E6.51647
G1 X113.179 Y124.658 E6.53368
G1 X113.681 Y124.54 E6.55083
G1 X113.782 Y124.514 E6.5543
G1 X114.278 Y124.376 E6.57142
G1 X114.77 Y124.221 E6.58858
G1 X115.162 Y124.083 E6.6024
G1 X115.642 Y123.897 E6.61952
G1 X115.739 Y123.857 E6.62301
G1 X116.212 Y123.652 E6.64016
G1 X116.587 Y123.476 E6.65393
G1 X117.048 Y123.241 E6.67114
G1 X117.499 Y122.99 E6.68831
G1 X117.849 Y122.779 E6.7019
G1 X117.942 Y122.726 E6.70546
G1 X118.377 Y122.443 E6.72272
G1 X118.8 Y122.147 E6.7399
G1 X119.213 Y121.837 E6.75707
G1 X119.615 Y121.513 E6.77424
G1 X120.006 Y121.175 E6.79143
G1 X120.384 Y120.824 E6.80859
G1 X120.752 Y120.459 E6.82583
G1 X121.105 Y120.084 E6.84296
G1 X121.447 Y119.695 E6.86019
G1 X121.773 Y119.295 E6.87735
G1 X122.086 Y118.885 E6.89451
G1 X122.385 Y118.463 E6.91171
G1 X122.669 Y118.031 E6.9289
G1 X122.939 Y117.589 E6.94613
G1 X123.192 Y117.139 E6.9633
G1 X123.43 Y116.681 E6.98047
G1 X123.652 Y116.215 E6.99764
G1 X123.859 Y115.742 E7.01481
G1 X124.047 Y115.26 E7.03202
G1 X124.22 Y114.773 E7.04921
G1 X124.377 Y114.281 E7.06638
G1 X124.516 Y113.783 E7.08358
G1 X124.636 Y113.281 E7.10075
G1 X124.741 Y112.775 E7.11793
G1 X124.829 Y112.265 E7.13515
G1 X124.898 Y111.753 E7.15233
G1 X124.948 Y111.239 E7.16951
G1 X124.982 Y110.724 E7.18667
G1 X124.999 Y110.208 E7.20385
G1 X124.997 Y109.691 E7.22104
G1 X124.977 Y109.175 E7.23822
G1 X124.939 Y108.66 E7.25539
G1 X124.886 Y108.146 E7.27258
G1 X124.812 Y107.634 E7.28978
G1 X124.721 Y107.126 E7.30695
G1 X124.614 Y106.62 E7.32415
G1 X124.489 Y106.118 E7.34136
G1 X124.346 Y105.622 E7.35853
G1 X124.187 Y105.131 E7.37569
G1 X124.011 Y104.646 E7.39285
G1 X123.858 Y104.26 E7.40666
G1 X123.818 Y104.164 E7.41012
G1 X123.609 Y103.694 E7.42723
G1 X123.383 Y103.229 E7.44443
G1 X123.142 Y102.772 E7.46161
G1 X122.886 Y102.324 E7.47877
G1 X122.613 Y101.884 E7.49599
G1 X122.326 Y101.454 E7.51319
G1 X122.025 Y101.034 E7.53037
G1 X121.709 Y100.626 E7.54754
G1 X121.38 Y100.228 E7.56471
G1 X121.036 Y99.842 E7.58191
G1 X120.68 Y99.469 E7.59906
G1 X120.31 Y99.107 E7.61628
G1 X119.929 Y98.758 E7.63346
G1 X119.536 Y98.424 E7.65062
G1 X119.132 Y98.101 E7.66782
G1 X118.716 Y97.794 E7.68502
G1 X118.292 Y97.502 E7.70214
G1 X117.943 Y97.276 E7.71597
G1 X117.499 Y97.01 E7.73318
G1 X117.049 Y96.759 E7.75032
G1 X116.588 Y96.523 E7.76755
G1 X116.12 Y96.305 E7.78472
G1 X115.644 Y96.103 E7.80192
G1 X115.163 Y95.916 E7.81908
G1 X114.675 Y95.747 E7.83626
G1 X114.181 Y95.595 E7.85345
G1 X113.683 Y95.459 E7.87062
G1 X113.18 Y95.341 E7.8878
G1 X112.673 Y95.239 E7.905
G1 X112.164 Y95.156 E7.92216
G1 X111.65 Y95.091 E7.93939
G1 X111.136 Y95.043 E7.95656
G1 X110.62 Y95.013 E7.97375
G1 X110.104 Y95.001 E7.99092
G1 X109.587 Y95.006 E8.00811
G1 X109.071 Y95.028 E8.02529
G1 X108.556 Y95.069 E8.04247
G1 X108.043 Y95.128 E8.05965
G1 X107.532 Y95.205 E8.07684
G1 X107.023 Y95.298 E8.09405
G1 X106.519 Y95.409 E8.11121
G1 X106.019 Y95.538 E8.12838
G1 X105.523 Y95.683 E8.14557
G1 X105.033 Y95.846 E8.16275
G1 X104.548 Y96.026 E8.17995
G1 X104.071 Y96.222 E8.19711
G1 X103.599 Y96.434 E8.21432
G1 X103.135 Y96.663 E8.23153
G1 X102.68 Y96.907 E8.2487
G1 X102.234 Y97.167 E8.26587
G1 X101.797 Y97.442 E8.28304
G1 X101.369 Y97.731 E8.30022
G1 X100.951 Y98.036 E8.31743
G1 X100.545 Y98.355 E8.3346
G1 X100.15 Y98.688 E8.35179
G1 X99.766 Y99.034 E8.36898
G1 X99.394 Y99.393 E8.38617
G1 X99.035 Y99.765 E8.40337
G1 X98.689 Y100.149 E8.42056
G1 X98.357 Y100.544 E8.43772
G1 X98.038 Y100.95 E8.45489
G1 X97.733 Y101.368 E8.4721
G1 X97.444 Y101.795 E8.48925
G1 X97.168 Y102.232 E8.50644
G1 X96.908 Y102.679 E8.52364
G1 X96.664 Y103.134 E8.54082
G1 X96.436 Y103.598 E8.55801
G1 X96.223 Y104.068 E8.57517
G1 X96.027 Y104.546 E8.59236
G1 X95.881 Y104.936 E8.60621
G1 X95.685 Y105.522 E8.62676
G1 X95.54 Y106.017 E8.64391
G1 X95.41 Y106.516 E8.66106
G1 X95.3 Y107.021 E8.67825
G1 X95.206 Y107.53 E8.69547
G1 X95.143 Y107.941 E8.7093
G1 X95.081 Y108.452 E8.72642
G1 X95.036 Y108.969 E8.74368
G1 X95.01 Y109.484 E8.76083
G1 X95.001 Y110 E8.778
G1 X95.009 Y110.517 E8.79519
G1 X95.035 Y111.033 E8.81238
G1 X95.08 Y111.548 E8.82957
G1 X95.142 Y112.06 E8.84673
G1 X95.222 Y112.57 E8.8639
G1 X95.319 Y113.078 E8.8811
G1 X95.434 Y113.583 E8.89832
G1 X95.567 Y114.082 E8.9155
G1 X95.715 Y114.576 E8.93265
G1 X95.881 Y115.065 E8.94983
G1 X96.064 Y115.549 E8.96704
